X:1
T:Title
%%score 1 { 2 | 3 }
L:1/8
Q:1/4=100
M:6/8
K:Ab
V:1 treble nm="Grand Piano, Soprano"
V:2 bass nm="Choir Pad, I Shall Be Glad"
V:3 bass 
V:1
 [CA][CA][CA] [CA]2 [DB] | [Ec]2 [Ec] [Ec]2 [CA] | [DB]>[DB][DB] [DB][CA][DB] | %3
w: By~Peter~Philip~Bilhorn * * * *|||
 [Ec]3- [Ec]3/2 z/ [Ec] | [Ae]2 [Ae] [Ae]2 [Ac] | [FB]2 [FB] [Fd]2 [FB] | [EA]2 [Ee] [Ac]2 [GB] | %7
w: ||||
 A6 | [Ae][Ae][Ae] [Ae]2 [Ac] | [FA]2 [DF] [FA]3 | E[EA][Ec] [Ee]2 [Ae] | [GB]6 | %12
w: |||||
 [Ee][Ee][Ee] [Ee]2 [Ac] | [FA]2 [DF] [FA]2 [Fd] | [Ec]2 [Ee] [Ac]2 [GB] | [EA]6- | [EA]3 z3 |] %17
w: |||||
V:2
 E,E,E, E,2 E, | A,2 A, A,2 A, | G,>G,G, G,A,G, | A,3- A,3/2 z/ A, | C2 C C2 E | D2 D B,2 D | %6
 C2 C E2 D | C6 | CCC C2 E | D2 A, D3 | CCA, C2 E | E6 | CCC C2 E | D2 A, D2 A, | A,2 C E2 D | %15
 C6- | C3 z3 |] %17
V:3
 A,,A,,A,, A,,2 A,, | A,,2 A,, A,,2 A,, | E,>E,E, E,F,E, | A,,6 | A,2 A, A,2 A, | D,2 D, D,2 D, | %6
 E,2 E, E,2 E, | [A,,A,]6 | A,A,A, A,2 A, | D,2 D, D,3 | A, .A,2 A,2 C, | E,6 | A,A,A, A,2 A, | %13
 D,2 D, D,2 D, | E,2 E, E,2 E, | A,,6- | A,,3 z3 |] %17

